src/assets/icons/media-library.svg

<svg width="24" height="24" viewBox="0 0 24 24" fill="none" xmlns="http://www.w3.org/2000/svg">
<path fill-rule="evenodd" clip-rule="evenodd" d="M4.30039 0.600098C3.80333 0.600098 3.40039 1.00304 3.40039 1.5001C3.40039 1.99716 3.80334 2.4001 4.30039 2.4001H19.6115C20.1086 2.4001 20.5115 1.99716 20.5115 1.5001C20.5115 1.00304 20.1086 0.600098 19.6115 0.600098H4.30039ZM21.4 4.2998C22.2837 4.2998 23 5.01611 23 5.89976V7.4748V21.3998C23 22.2834 22.2831 22.9998 21.3994 22.9998H17.5H6.49999H2.60141C1.71776 22.9998 1.00004 22.2834 1.00003 21.3998L1.00003 7.99983C1.00003 7.99983 1 16.3146 1 5.9147C1 5.03104 1.71635 4.2998 2.6 4.2998H12H21.4ZM5.03223 19.1795H19.3682L16.2322 15.9749L14.4402 17.8061L10.4082 13.686L5.03223 19.1795ZM18.4722 10.4828C18.4722 11.7646 17.4866 12.7718 16.2322 12.7718C14.9778 12.7718 13.9922 11.7646 13.9922 10.4828C13.9922 9.20099 14.9778 8.19385 16.2322 8.19385C17.4866 8.19385 18.4722 9.20099 18.4722 10.4828Z" fill="#32324D"/>
</svg>

<svg width="24" height="24" fill="none" xmlns="http://www.w3.org/2000/svg"><path fill-rule="evenodd" clip-rule="evenodd" d="M4.3.6a.9.9 0 100 1.8h15.311a.9.9 0 100-1.8H4.301zm17.1 3.7A1.6 1.6 0 0123 5.9v15.5a1.6 1.6 0 01-1.6 1.6H2.6A1.601 1.601 0 011 21.4V8 5.915C1 5.03 1.716 4.3 2.6 4.3h18.8zM5.032 19.18h14.336l-3.136-3.205-1.792 1.831-4.032-4.12-5.376 5.494zm13.44-8.697c0 1.282-.985 2.289-2.24 2.289-1.254 0-2.24-1.007-2.24-2.29 0-1.281.986-2.288 2.24-2.288 1.255 0 2.24 1.007 2.24 2.289z" fill="#32324D"/></svg>
